**harm	**harte	**timestamp	**phrase	**leadinstrument	**kern
*M6/8	*M6/8	*	*	*	*
*F:	*F:	*	*	*	*F:
1r;	N	0	.	r	1r;
=1	=1	=1	=1	=1	=1
*>A_intro	*>A_intro	*>A_intro	*>A_intro	*>A_intro	*>A_intro
2.r	N	0.603	newline	strings	2r
=2	=2	=2	=2	=2	=2
*>B_chorus	*>B_chorus	*>B_chorus	*>B_chorus	*>B_chorus	*>B_chorus
2.IV7	B-:maj7	4.923	newline	voice	2B- 2dd 2ff 2aa
=3	=3	=3	=3	=3	=3
2.ii7	G:min7	6.851	.	voice	2G 2b- 2dd 2ff
=4	=4	=4	=4	=4	=4
2.V	C:maj	8.779	.	voice	2C 2e 2g
=5	=5	=5	=5	=5	=5
2.I	F:maj	10.706	.	voice	2F 2a 2cc
=6	=6	=6	=6	=6	=6
2.ii	G:min	12.634	.	voice	2G 2b- 2dd
=7	=7	=7	=7	=7	=7
2.viioc	E:dim/b5	14.562	.	voice	2e 2g 2B-
=8	=8	=8	=8	=8	=8
2.III7	A:7	16.49	.	voice	2A 2cc# 2ee 2gg
=9	=9	=9	=9	=9	=9
2.III7	A:7	18.418	.	voice	2A 2cc# 2ee 2gg
=10	=10	=10	=10	=10	=10
2.IV7	B-:maj7	20.346	newline	voice	2B- 2dd 2ff 2aa
=11	=11	=11	=11	=11	=11
2.ii7	G:min7	22.115	.	voice	2G 2b- 2dd 2ff
=12	=12	=12	=12	=12	=12
2.V	C:maj	23.885	.	voice	2C 2e 2g
=13	=13	=13	=13	=13	=13
2.I	F:maj	25.654	.	voice	2F 2a 2cc
=14	=14	=14	=14	=14	=14
2.ii	G:min	27.423	.	voice	2G 2b- 2dd
=15	=15	=15	=15	=15	=15
2.V	C:maj	29.192	.	voice	2C 2e 2g
=16	=16	=16	=16	=16	=16
2.I	F:maj	30.962	.	voice	2F 2a 2cc
=17	=17	=17	=17	=17	=17
2.I	F:maj	32.731	.	voice	2F 2a 2cc
=18	=18	=18	=18	=18	=18
*>C_bridge	*>C_bridge	*>C_bridge	*>C_bridge	*>C_bridge	*>C_bridge
2.I	F:maj	34.5	newline	voice	2F 2a 2cc
=19	=19	=19	=19	=19	=19
2.I	F:maj	36.318	.	voice	2F 2a 2cc
=20	=20	=20	=20	=20	=20
2.I	F:maj	38.136	.	voice	2F 2a 2cc
=21	=21	=21	=21	=21	=21
2.I	F:maj	39.953	.	voice	2F 2a 2cc
=22	=22	=22	=22	=22	=22
2.I	F:maj	41.771	newline	voice	2F 2a 2cc
=23	=23	=23	=23	=23	=23
2.I	F:maj	43.588	.	voice	2F 2a 2cc
=24	=24	=24	=24	=24	=24
2.V	C:maj	45.404	.	voice	2C 2e 2g
=25	=25	=25	=25	=25	=25
2.V	C:maj	47.22	.	voice	2C 2e 2g
=26	=26	=26	=26	=26	=26
2.vi	D:min	49.037	newline	voice	2D 2f 2a
=27	=27	=27	=27	=27	=27
2.vi	D:min	50.808	.	voice	2D 2f 2a
=28	=28	=28	=28	=28	=28
2.vi	D:min	52.579	.	voice	2D 2f 2a
=29	=29	=29	=29	=29	=29
2.vi	D:min	54.35	.	voice	2D 2f 2a
=30	=30	=30	=30	=30	=30
2.vi	D:min	56.12	newline	voice	2D 2f 2a
=31	=31	=31	=31	=31	=31
2.vi	D:min	57.903	.	voice	2D 2f 2a
=32	=32	=32	=32	=32	=32
2.III7	A:7	59.685	.	voice	2A 2cc# 2ee 2gg
=33	=33	=33	=33	=33	=33
2.III7	A:7	61.468	.	voice	2A 2cc# 2ee 2gg
=34	=34	=34	=34	=34	=34
*>B_chorus	*>B_chorus	*>B_chorus	*>B_chorus	*>B_chorus	*>B_chorus
2.IV7	B-:maj7	63.25	newline	voice	2B- 2dd 2ff 2aa
=35	=35	=35	=35	=35	=35
2.ii7	G:min7	65.052	.	voice	2G 2b- 2dd 2ff
=36	=36	=36	=36	=36	=36
2.V	C:maj	66.853	.	voice	2C 2e 2g
=37	=37	=37	=37	=37	=37
2.I	F:maj	68.655	.	voice	2F 2a 2cc
=38	=38	=38	=38	=38	=38
2.ii	G:min	70.457	.	voice	2G 2b- 2dd
=39	=39	=39	=39	=39	=39
2.viioc	E:dim/b5	72.258	.	voice	2e 2g 2B-
=40	=40	=40	=40	=40	=40
2.III7	A:7	74.06	.	voice	2A 2cc# 2ee 2gg
=41	=41	=41	=41	=41	=41
2.III7	A:7	75.862	.	voice	2A 2cc# 2ee 2gg
=42	=42	=42	=42	=42	=42
2.IV7	B-:maj7	77.663	newline	voice	2B- 2dd 2ff 2aa
=43	=43	=43	=43	=43	=43
2.ii7	G:min7	79.484	.	voice	2G 2b- 2dd 2ff
=44	=44	=44	=44	=44	=44
2.V	C:maj	81.305	.	voice	2C 2e 2g
=45	=45	=45	=45	=45	=45
2.I	F:maj	83.127	.	voice	2F 2a 2cc
=46	=46	=46	=46	=46	=46
2.ii	G:min	84.948	.	voice	2G 2b- 2dd
=47	=47	=47	=47	=47	=47
2.V	C:maj	86.769	.	voice	2C 2e 2g
=48	=48	=48	=48	=48	=48
2.I	F:maj	88.59	.	voice	2F 2a 2cc
=49	=49	=49	=49	=49	=49
2.I	F:maj	90.411	.	voice	2F 2a 2cc
=50	=50	=50	=50	=50	=50
*>C2_bridge	*>C2_bridge	*>C2_bridge	*>C2_bridge	*>C2_bridge	*>C2_bridge
2.I	F:maj	92.232	newline	strings harpsichord	2F 2a 2cc
=51	=51	=51	=51	=51	=51
2.I+	F:aug	94.025	.	strings harpsichord	2F 2a 2cc#
=52	=52	=52	=52	=52	=52
2.I	F:maj6	95.818	.	strings harpsichord	2F 2a 2cc
=53	=53	=53	=53	=53	=53
2.I	F:maj6	97.612	.	strings harpsichord	2F 2a 2cc
=54	=54	=54	=54	=54	=54
2.I	F:maj	99.405	newline	strings harpsichord	2F 2a 2cc
=55	=55	=55	=55	=55	=55
2.I	F:maj6	101.224	.	strings harpsichord	2F 2a 2cc
=56	=56	=56	=56	=56	=56
2.ii	G:min	103.043	.	strings harpsichord	2G 2b- 2dd
=57	=57	=57	=57	=57	=57
2.V	C:maj	104.863	.	strings harpsichord	2C 2e 2g
=58	=58	=58	=58	=58	=58
2.vi	D:min	106.682	newline	strings harpsichord	2D 2f 2a
=59	=59	=59	=59	=59	=59
2.vi	D:minmaj7	108.489	.	strings harpsichord	2D 2f 2a
=60	=60	=60	=60	=60	=60
2.vi7	D:min7	110.295	.	strings harpsichord	2D 2f 2a 2cc
=61	=61	=61	=61	=61	=61
4.vi	D:min	112.102	.	strings harpsichord	4D 4f 4a
4.vi7	D:min7	113.005	.	strings harpsichord	4D 4f 4a 4cc
=62	=62	=62	=62	=62	=62
2.II7	G:7	113.909	newline	strings harpsichord	2G 2b 2dd 2ff
=63	=63	=63	=63	=63	=63
2.II7	G:7	115.748	.	strings harpsichord	2G 2b 2dd 2ff
=64	=64	=64	=64	=64	=64
2.V7	C:7	117.588	.	strings harpsichord	2C 2e 2g 2b-
=65	=65	=65	=65	=65	=65
2.V7	C:7	119.428	.	strings harpsichord	2C 2e 2g 2b-
=66	=66	=66	=66	=66	=66
*>B_chorus	*>B_chorus	*>B_chorus	*>B_chorus	*>B_chorus	*>B_chorus
2.IV7	B-:maj7	121.267	newline	strings harpsichord	2B- 2dd 2ff 2aa
=67	=67	=67	=67	=67	=67
2.ii7	G:min7	123.067	.	strings harpsichord	2G 2b- 2dd 2ff
=68	=68	=68	=68	=68	=68
2.V	C:maj	124.866	.	strings harpsichord	2C 2e 2g
=69	=69	=69	=69	=69	=69
2.I	F:maj	126.665	.	strings harpsichord	2F 2a 2cc
=70	=70	=70	=70	=70	=70
2.ii	G:min	128.464	.	strings harpsichord	2G 2b- 2dd
=71	=71	=71	=71	=71	=71
2.viioc	E:dim/b5	130.264	.	strings harpsichord	2e 2g 2B-
=72	=72	=72	=72	=72	=72
2.III7	A:7	132.063	.	strings harpsichord	2A 2cc# 2ee 2gg
=73	=73	=73	=73	=73	=73
2.III7	A:7	133.862	.	strings harpsichord	2A 2cc# 2ee 2gg
=74	=74	=74	=74	=74	=74
2.IV7	B-:maj7	135.661	newline	strings harpsichord	2B- 2dd 2ff 2aa
=75	=75	=75	=75	=75	=75
2.ii7	G:min7	137.789	.	strings harpsichord	2G 2b- 2dd 2ff
=76	=76	=76	=76	=76	=76
2.V	C:maj	139.918	.	strings harpsichord	2C 2e 2g
=77	=77	=77	=77	=77	=77
2.I	F:maj	142.046	.	strings harpsichord	2F 2a 2cc
=78	=78	=78	=78	=78	=78
2.ii	G:min	144.174	.	strings harpsichord	2G 2b- 2dd
=79	=79	=79	=79	=79	=79
2.V	C:maj	146.302	.	strings harpsichord	2C 2e 2g
1r;	N	148.43	.	r	1r;
=80	=80	=80	=80	=80	=80
*>D_outro	*>D_outro	*>D_outro	*>D_outro	*>D_outro	*>D_outro
2.I	F:maj	150.558	newline	voice harpsichord	2F 2a 2cc
=81	=81	=81	=81	=81	=81
2.IV	B-:maj	152.602	.	voice harpsichord	2B- 2dd 2ff
=82	=82	=82	=82	=82	=82
4.iii	A:min	154.645	.	voice harpsichord	4A 4cc 4ee
4.IV	B-:maj	155.667	.	voice harpsichord	4B- 4dd 4ff
=83	=83	=83	=83	=83	=83
4.V	C:maj	156.688	.	voice harpsichord	4C 4e 4g
4.V7	C:7	157.71	.	voice harpsichord	4C 4e 4g 4b-
=84	=84	=84	=84	=84	=84
2.I	F:maj	158.732	newline	harpsichord	2F 2a 2cc
1r;	N	162.484	.	r	1r;
1r;	N	166.374	.	r	1r;
*-	*-	*-	*-	*-	*-
!!!OTL: All Alone Am I
!!!COC: Brenda Lee
!!!BillboardChartDate: 1962/10/20
!!!BillboardPeak: 3
!!!BillboardWeeksOnChart: 15
!!!SampleTargetRank: 15
!!!SampleActualRank: 15
!!!SampleID#: 1253
!!!RDF**harmony: **recip + pitch class of root + harmonic quality
!!!RDF**harte: Chris Harte's syntax, used by MIREX
!!!RDF**phrase: newline = linebreak in original McGill transcription
!!!RDF**timestamp: McGill audio timestamp in seconds
!!!RDF**leadinstrument: original McGill primary instrumentation annotation
!!!RDT: 2017/01/12/
!!!ENC: Nathaniel Condit-Schultz
!!!EST: Awating manual error checking and editing.
